!! 00000] TT[WS
!!!OTL: Qingmiao dili luole shuang
!!!ARE: Asia, China,ÿShanxi Hequ
!! Ethnic Group: Han
!! WI, 19 (1)
!!!SCT: J0021
!!!YEM: Copyright 1995, estate of Helmut Schaffrath.
**kern
*ICvox
*Ivox
*M2/4
*k[]
*C:
{8ee
8ee
8cc
16cc
16aa
=1
8dd
8cc
8cc
16cc
16ee
=2
8g
8e
8c
16c
16g
=3
2d}
=4
{8ee
8ee
8cc
16cc
16aa
=5
8dd
8cc
8cc
16cc
16ee
=6
8g
8e
8c
16c
16a
=7
2g}
==
!!!AGN: Shange, Shanqu. Qingge
!!!ONB: ESAC (Essen Associative Code) Database: CHINA
!!!AMT: simple duple
!!!AIN: vox
!!!EED: Helmut Schaffrath
!!!EEV: 1.0
*-
